groups/amino_sidechains/tyrosine.svg

<svg height="256" viewBox="0 0 256 256" width="256" xmlns="http://www.w3.org/2000/svg"><path d="m0 0h256v256h-256z" fill="#fff"/><g fill="none" stroke-width="2"><path d="m161.3 223.3-39-22.4" stroke="#000"/><path d="m122.3 200.9-.1-45" stroke="#000"/><path d="m122.2 155.9-39-22.4" stroke="#000"/><path d="m122.2 148.1-32.3-18.6" stroke="#000"/><path d="m83.2 133.5-.1-45" stroke="#000"/><path d="m83.1 88.5 38.9-22.6" stroke="#000"/><path d="m89.9 92.4 32.1-18.7" stroke="#000"/><path d="m122 65.9v-30" stroke="#000"/><path d="m122 65.9 39 22.4" stroke="#000"/><path d="m161 88.3.1 45" stroke="#000"/><path d="m154.3 92.2.1 37.2" stroke="#000"/><path d="m161.1 133.3-38.9 22.6" stroke="#000"/><path d="m124.2 202-1.9-1.1v-2.3" stroke="#000" stroke-miterlimit="10"/><path d="m85.1 134.6-1.9-1.1v-2.3" stroke="#000" stroke-miterlimit="10"/><path d="m83.1 90.7v-2.2l1.9-1.2" stroke="#000" stroke-miterlimit="10"/><path d="m159.1 87.2 1.9 1.1v2.3" stroke="#000" stroke-miterlimit="10"/><path d="m161.1 131.1v2.2l-1.9 1.1" stroke="#000" stroke-miterlimit="10"/><path d="m172.505 203.788c-1.463-.841-2.584 1.11-1.121 1.95 1.463.841.342 2.791-1.121 1.951-1.463-.841-2.584 1.11-1.121 1.95 1.463.841.342 2.792-1.121 1.951s-2.584 1.11-1.121 1.951c1.463.84.342 2.791-1.121 1.95-1.462-.84-2.583 1.11-1.12 1.951 1.462.841.342 2.791-1.121 1.951-1.463-.841-2.584 1.11-1.121 1.95 1.463.841.342 2.791-1.121 1.951-1.463-.841-2.584 1.11-1.121 1.95 1.463.841.342 2.792-1.121 1.951s-2.584 1.11-1.121 1.951c1.463.84.342 2.791-1.121 1.95-1.463-.84-2.583 1.11-1.12 1.951 1.462.841.342 2.791-1.121 1.951-1.463-.841-2.584 1.109-1.121 1.95s.342 2.791-1.121 1.951c-1.463-.841-2.584 1.11-1.121 1.95 1.463.841.342 2.792-1.121 1.951" stroke="#7f7f7f"/></g><text font-family="sans-serif" font-size="26" x="113.8" y="34.4">O</text><text font-family="sans-serif" font-size="26" x="132.5" y="34.4">H</text></svg>

<?xml version='1.0' encoding='iso-8859-1'?>
<svg version='1.1' baseProfile='full'
              xmlns='http://www.w3.org/2000/svg'
                      xmlns:rdkit='http://www.rdkit.org/xml'
                      xmlns:xlink='http://www.w3.org/1999/xlink'
                  xml:space='preserve'
width='256px' height='256px' viewBox='0 0 256 256'>
<!-- END OF HEADER -->
<rect style='opacity:1.0;fill:#FFFFFF;stroke:none' width='256.0' height='256.0' x='0.0' y='0.0'> </rect>
<path class='bond-0 atom-0 atom-1' d='M 161.3,223.3 L 122.3,200.9' style='fill:none;fill-rule:evenodd;stroke:#000000;stroke-width:2.0px;stroke-linecap:butt;stroke-linejoin:miter;stroke-opacity:1' />
<path class='bond-1 atom-1 atom-2' d='M 122.3,200.9 L 122.2,155.9' style='fill:none;fill-rule:evenodd;stroke:#000000;stroke-width:2.0px;stroke-linecap:butt;stroke-linejoin:miter;stroke-opacity:1' />
<path class='bond-2 atom-2 atom-3' d='M 122.2,155.9 L 83.2,133.5' style='fill:none;fill-rule:evenodd;stroke:#000000;stroke-width:2.0px;stroke-linecap:butt;stroke-linejoin:miter;stroke-opacity:1' />
<path class='bond-2 atom-2 atom-3' d='M 122.2,148.1 L 89.9,129.5' style='fill:none;fill-rule:evenodd;stroke:#000000;stroke-width:2.0px;stroke-linecap:butt;stroke-linejoin:miter;stroke-opacity:1' />
<path class='bond-3 atom-3 atom-4' d='M 83.2,133.5 L 83.1,88.5' style='fill:none;fill-rule:evenodd;stroke:#000000;stroke-width:2.0px;stroke-linecap:butt;stroke-linejoin:miter;stroke-opacity:1' />
<path class='bond-4 atom-4 atom-5' d='M 83.1,88.5 L 122.0,65.9' style='fill:none;fill-rule:evenodd;stroke:#000000;stroke-width:2.0px;stroke-linecap:butt;stroke-linejoin:miter;stroke-opacity:1' />
<path class='bond-4 atom-4 atom-5' d='M 89.9,92.4 L 122.0,73.7' style='fill:none;fill-rule:evenodd;stroke:#000000;stroke-width:2.0px;stroke-linecap:butt;stroke-linejoin:miter;stroke-opacity:1' />
<path class='bond-5 atom-5 atom-6' d='M 122.0,65.9 L 122.0,35.9' style='fill:none;fill-rule:evenodd;stroke:#000000;stroke-width:2.0px;stroke-linecap:butt;stroke-linejoin:miter;stroke-opacity:1' />
<path class='bond-6 atom-5 atom-7' d='M 122.0,65.9 L 161.0,88.3' style='fill:none;fill-rule:evenodd;stroke:#000000;stroke-width:2.0px;stroke-linecap:butt;stroke-linejoin:miter;stroke-opacity:1' />
<path class='bond-7 atom-7 atom-8' d='M 161.0,88.3 L 161.1,133.3' style='fill:none;fill-rule:evenodd;stroke:#000000;stroke-width:2.0px;stroke-linecap:butt;stroke-linejoin:miter;stroke-opacity:1' />
<path class='bond-7 atom-7 atom-8' d='M 154.3,92.2 L 154.4,129.4' style='fill:none;fill-rule:evenodd;stroke:#000000;stroke-width:2.0px;stroke-linecap:butt;stroke-linejoin:miter;stroke-opacity:1' />
<path class='bond-8 atom-8 atom-2' d='M 161.1,133.3 L 122.2,155.9' style='fill:none;fill-rule:evenodd;stroke:#000000;stroke-width:2.0px;stroke-linecap:butt;stroke-linejoin:miter;stroke-opacity:1' />
<path d='M 124.2,202.0 L 122.3,200.9 L 122.3,198.6' style='fill:none;stroke:#000000;stroke-width:2.0px;stroke-linecap:butt;stroke-linejoin:miter;stroke-miterlimit:10;stroke-opacity:1;' />
<path d='M 85.1,134.6 L 83.2,133.5 L 83.2,131.2' style='fill:none;stroke:#000000;stroke-width:2.0px;stroke-linecap:butt;stroke-linejoin:miter;stroke-miterlimit:10;stroke-opacity:1;' />
<path d='M 83.1,90.7 L 83.1,88.5 L 85.0,87.3' style='fill:none;stroke:#000000;stroke-width:2.0px;stroke-linecap:butt;stroke-linejoin:miter;stroke-miterlimit:10;stroke-opacity:1;' />
<path d='M 159.1,87.2 L 161.0,88.3 L 161.0,90.6' style='fill:none;stroke:#000000;stroke-width:2.0px;stroke-linecap:butt;stroke-linejoin:miter;stroke-miterlimit:10;stroke-opacity:1;' />
<path d='M 161.1,131.1 L 161.1,133.3 L 159.2,134.4' style='fill:none;stroke:#000000;stroke-width:2.0px;stroke-linecap:butt;stroke-linejoin:miter;stroke-miterlimit:10;stroke-opacity:1;' />
<path class='atom-1' d='M172.505,203.788 C171.042,202.947 169.921,204.898 171.384,205.738 C172.847,206.579 171.726,208.529 170.263,207.689 C168.8,206.848 167.679,208.799 169.142,209.639 C170.605,210.48 169.484,212.431 168.021,211.59 C166.558,210.749 165.437,212.7 166.9,213.541 C168.363,214.381 167.242,216.332 165.779,215.491 C164.317,214.651 163.196,216.601 164.659,217.442 C166.121,218.283 165.001,220.233 163.538,219.393 C162.075,218.552 160.954,220.503 162.417,221.343 C163.88,222.184 162.759,224.134 161.296,223.294 C159.833,222.453 158.712,224.404 160.175,225.244 C161.638,226.085 160.517,228.036 159.054,227.195 C157.591,226.354 156.47,228.305 157.933,229.146 C159.396,229.986 158.275,231.937 156.812,231.096 C155.349,230.256 154.229,232.206 155.692,233.047 C157.154,233.888 156.034,235.838 154.571,234.998 C153.108,234.157 151.987,236.107 153.45,236.948 C154.913,237.789 153.792,239.739 152.329,238.899 C150.866,238.058 149.745,240.009 151.208,240.849 C152.671,241.69 151.55,243.641 150.087,242.8' style='fill:none;stroke:#7F7F7F;stroke-width:2.0px;stroke-linecap:butt;stroke-linejoin:miter;stroke-opacity:1' />
<text x='113.8' y='34.4' class='atom-6' style='font-size:26px;font-style:normal;font-weight:normal;fill-opacity:1;stroke:none;font-family:sans-serif;text-anchor:start;fill:#000000' >O</text>
<text x='132.5' y='34.4' class='atom-6' style='font-size:26px;font-style:normal;font-weight:normal;fill-opacity:1;stroke:none;font-family:sans-serif;text-anchor:start;fill:#000000' >H</text>
</svg>
